X: 38588
T: Stone In The Field, The
R: reel
M: 4/4
K: Adorian
AG|:EAAG ABcd|eaaf gedB|~c3A BEGB|A/B/c BA GEDG|
EAAG ABcd|eaaf gedB|~c3d eage|1 dBGA BAAG:|2 dBGA BA B/c/d||
|:eaa^g gaab|c'2ba gedB|~c3A BEGB|A/B/c BA GEDg|
e~a3 b~g3|agef gfga|bgaf gedB|1 AdBG A2:|2 AdBG EAAG||

